X: 113106
T: The WANDERING TINKER
Q: "Reel."
R:  Reel.
%R: reel
B: James Kerr "Merry Melodies" v.1 p.13 s.1 #6
Z: 2017 John Chambers <jc:trillian.mit.edu>
M: C
L: 1/8
K: D
|: uA |\
d2fd (fa)fd | ceed ceef |\
d2fd (fa)fd | cbac d2-d :|\
uB |\
AGFG ABcd | ceed ceef |
dAFG ABcd | Bbac d2(dB) |\
AGFG ABcd | ceed ceef |\
dfeg fagb | afge d2-d |]\
{D}"_Fin."D4 ||

% %newpage
%%sep 1 1 500
%%sep 1 1 500
%%center Set. 21st.

%%sep 1 1 500
%%sep 1 1 500

